X:975
T:Reel for Grace
R:reel
C:Michael McGoldrick
Z:id:hn-reel-975
M:C|
L:1/8
K:D
DF~F2 ADFA | df~f2 afeg | f2ed Be~e2 | fedB BAFE |
DF~F2 ADFA | df~f2 afeg | f2ed Be~e2 |1 fedc dBAF :|2 fedc defg ||
|: faaf a2ab | afef b3a | faaf a2ab | afed fede |
f2af egfe | dfed B3d | AF~F2 ABde |1 fedc d2de :|2 fedc dBAF ||
P:variations
|: DF~F2 ADFA | df~f2 afed | efed Be~e2 | fedB BAFE |
DF~F2 ADFA | df~f2 afed | efed Be~e2 | defe d4 :|
|: faaf a2ab | afef b3a | faaf a2ab | afea fede |
f2af egfe | dfed B2dB | AF~F2 ABde |1 f2eg fede :|2 f2eg fed2 ||

